X:1
T:When I Survey the Wondrous Cross (Old Palatine)
T:When I Survey the Wondrous Cross (Old Palatine)
T:Scott Werdebaugh, 1995
T:Isaac Watts, 1707
T:© 1995  Scott Werdebaugh &amp; New Heart Music - May copy and use freely for Christian worship or devotions with no alterations. All other rights reserved.
T:© 1995  Scott Werdebaugh &amp; New Heart Music - May copy and use freely for Christian worship or devotions with no alterations. All other rights reserved.
C:Scott Werdebaugh, 1995
Z:© 1995  Scott Werdebaugh & New Heart Music - May copy and use freely for
Z:Christian worship or devotions with no alterations. All other rights reserved.
%%score ( 1 2 ) ( 3 4 )
L:1/8
Q:1/4=130
M:3/4
K:C
V:1 treble 
V:2 treble 
V:3 bass 
V:4 bass 
V:1
"^Reflective"!p! C2 C2 C2 | [EG]4 [EG]2 | ([CA]3 [CG]) [CF]2 | [DG]6 | C2 C2 C2 | [EG]4 [EG]2 | %6
w: 1.~When I sur-|vey the|won- * drous|cross|On which the|Prince of|
w: 2.~See, from His|head, His|hands, * His|feet,|Sor- row and|love flow|
 [DF]4 [CE]2 | [B,D]6 | C2 C2 C2 | [EG]4 [EG]2 | (F2 G2) [CA]2 | !fermata![EG]4 C2 | %12
w: glo- ry|died,|My rich- est|gain I|count * but|loss, And|
w: min- gled|down;|Did e’er such|love and|sor- * row|meet, Or|
 (F2 E2) [B,D]2 | [CE]4 [CE]2 | ([B,D]2 C2) B,2 | C6 |!mp! [FA]2 [FA]2 [FA]2 | [EG]4 [CE]2 | %18
w: pour * con-|tempt on|all * my|pride.|For- bid it,|Lord, that|
w: thorns * com-|pose so|rich * a|crown?|Were the whole|realm of|
 [DG]4 [B,G]2 | [CE]6 | [FA]2 [FA]2 [FA]2 | [EG]4 [EG]2 | (^F2 G2) [DA]2 | B6 | [Ec]2 [Fc]2 [Gc]2 | %25
w: I should|boast,|Save in the|death of|Christ, * my|God;|All the vain|
w: na- ture|mine,|That were a|pres- ent|far * too|small;|Love so a-|
 [Ac]4 [FA]2 | [DG]4 [DF]2 | !fermata![CE]4 !breath!C2 | [CF]4 [CE]2 | [A,D]4 [A,C]2 |1 %30
w: things that|charm me|most— I|sac- ri-|fice them|
w: maz- ing,|so di-|vine, De-|mands my|soul, my|
 [B,E]4 [B,D]2 | C6- | C4 z2 :|2[Q:1/4=100]"^rit." C[B,D] [CE]2 [B,D]>C[Q:1/4=96] || %34
w: to His|blood.|||
w: ~~ ~~|~~||life, my all. * *|
 C6[Q:1/4=110]"^Allargando & Expressivo" |[Q:1/4=110] C4[K:treble+8]!p! C2 | [CF]4 [CE]2 | %37
w: |||
w: |||
 [B,D]4 C2 |[Q:1/4=96] (C[B,D] [CE]2)[Q:1/4=88] [DG]2 | [EGc]6 | [cegc']6 |[Q:1/4=84] C,,6 |] %42
w: |||||
w: |||||
V:2
 C2 C2 C2 | x6 | x6 | x6 | C2 C2 C2 | x6 | x6 | x6 | C2 C2 C2 | x6 | C4 x2 | x4 C2 | C4 x2 | x6 | %14
 x2 C2 B,2 | C6 | x6 | x6 | x6 | x6 | x6 | x6 | D4 x2 | (G4 =F2) | x6 | x6 | x6 | x4 C2 | x6 | %29
 x6 |1 x6 | C6- | C4 x2 :|2 x11/2 C/ || C6- | C4[K:treble+8] C2 | x6 | x4 C2 | x6 | x6 | x6 | x6 |] %42
V:3
!p! [E,G,]2 [C,E,]2 [E,G,]2 | [E,B,]4 [E,B,]2 | ([F,A,]3 [E,G,]) [D,A,]2 | (B,2 A,2 B,2) | %4
 [E,G,]2 [C,E,]2 [E,G,]2 | [E,B,]4 [E,B,]2 | [F,A,]4 [C,G,]2 | (G,4 F,2) | %8
 [E,G,]2 [C,E,]2 [E,G,]2 | [E,B,]4 [E,B,]2 | ([F,A,]2 [E,G,]2) [C,F,]2 | !fermata![C,G,]4 [E,G,]2 | %12
 (A,2 G,2) [G,,G,]2 | [C,G,]4 [C,G,]2 | ([B,,G,]2 [G,,E,]2) [G,,D,]2 | [C,E,]6 | %16
!mp! [C,A,]2 [C,F,]2 [C,A,]2 | [C,C]4 [C,G,]2 | [G,B,]4 [D,G,]2 | [C,G,]6 | %20
 [C,A,]2 [C,F,]2 [C,A,]2 | [C,C]4 [C,C]2 | (A,2 B,2) [^F,C]2 | [G,D]6 | [G,C]2 [F,A,]2 [E,C]2 | %25
 [F,C]4 [F,C]2 | [G,B,]4 [G,B,]2 | !fermata![E,A,]4 [E,G,]2 | [F,A,]4 [C,G,]2 | [D,F,]4 [D,F,]2 |1 %30
 [G,,G,]4 G,F, | [C,E,G,]6- | [C,E,G,]4 z2 :|2 [F,A,][D,G,] [C,G,]2 G,>F, || [C,E,G,]6- | %35
 [C,E,G,]4[K:bass+8]!p! [C,E,G,]2 | [C,F,A,]4 [C,E,G,]2 | [G,,D,G,]4 [C,E,G,]2 | %38
 ([C,F,A,][G,,D,G,] [C,E,G,]2) [D,G,B,]2 | [C,G,C]6 | [CEGc]6 | [C,,,,C,,,]6 |] %42
V:4
 x6 | x6 | x6 | [G,,G,]6 | x6 | x6 | x6 | G,,6 | x6 | x6 | x6 | x6 | C,4 x2 | x6 | x6 | x6 | x6 | %17
 x6 | x6 | x6 | x6 | x6 | D,4 x2 | x6 | x6 | x6 | x6 | x6 | x6 | x6 |1 x4 G,,2 | x6 | x6 :|2 %33
 x4 G,,2 || x6 | x4[K:bass+8] x2 | x6 | x6 | x6 | x6 | x6 | x6 |] %42

